X:18
%%scale .7
%%measurenb 0.
T:Father's Shirt/ Paddy Cronin's/ Lad O'Beirne's Geese
T:Did You Wash Your Father's Shirt?
M:4/4
K:D
||:E/F/G AB =cAG2|Addc d3e|fdec dBAB|1=cAGE D2 AD:||2=cAGE D3 g||:
fdec dcAg|fdec d2de|fdec dcAB|1=cAGE D3 g:||2=cAGE D4|
T:Paddy Cronin's Beauty
M:4/4
K:G
||:[dG]GBG ABcA|dGBG c2 Bc|dGBG ABcA|dBcA G3B:||:
d/d/d de fdec|dggf g2 ag|edd2 ecc2|dBcA G3B:||
T:Lad O'Beirne's Geese in the Bog
M:4/4
K:D
|dF F2 AFEF|dFBF A2 Bc|dF F2 AFED|DBBS B3c|
dF F2 AFEF|dFBF A2 Bc|d/c/B BA BAFE|DBBA B3c||
d2fd edef|d2fd faaf|defd edcA|BdcA BABc|
defd edef|d2fd faa2|bgaf gfed|BdcA B3c||

